src/topics/icons/protonet.svg

<svg height="120" preserveAspectRatio="xMidYMid" viewBox="0 0 512 120" width="512" xmlns="http://www.w3.org/2000/svg"><path d="m1.11703258 90.8191372c-.61401504-.354807-1.11703258-1.2241804-1.11703258-1.9299448v-57.8008221c0-.7070476.50301754-1.5751378 1.11703258-1.9305865l50.69954892-28.89142854c.6146566-.35480701 1.6200501-.35480701 2.2347067 0l50.6963408 28.89463664c.614657.354807 1.117033 1.2228972 1.117033 1.9299448v57.8008221c0 .7051228-.502376 1.5738546-1.117033 1.9299448l-50.6963408 28.8920704c-.6146566.354807-1.6200501.354807-2.2347067 0zm152.36940342-53.9781453v23.4442105h10.025063c7.275789 0 10.509473-2.9642105 10.509473-7.8147369v-7.8147368c0-4.8498847-3.233684-7.8147368-10.509473-7.8147368zm0 30.8996491v20.9291228c0 1.2569022-.323368 1.7958496-1.455158 1.7958496h-4.93201c-1.050947 0-1.455158-.5389474-1.455158-1.7958496v-57.4870777c0-1.2575439.404211-1.7971328 1.455158-1.7971328h16.412231c13.905483 0 18.351799 6.4673684 18.351799 13.8329824v10.6897644c0 7.3649725-4.446316 13.8323409-18.351799 13.8323409zm46.621514-30.8996491v22.0070175h10.024421c7.276431 0 10.510757-2.874386 10.510757-7.8147368v-6.3775439c0-4.8498847-3.234326-7.8147368-10.510757-7.8147368zm0 29.4624561v22.3663158c0 1.2569022-.32401 1.7958496-1.4558 1.7958496h-4.931368c-1.050947 0-1.455158-.5389474-1.455158-1.7958496v-57.4870777c0-1.2575439.404211-1.7971328 1.455158-1.7971328h16.411589c13.906125 0 18.352441 6.4673684 18.352441 13.8329824v9.3417544c0 5.4792982-2.506105 10.4196491-9.459168 12.5760802l9.701694 23.5333935c.404211 1.0778947-.323368 1.7958496-1.455158 1.7958496h-4.851167c-1.13179 0-1.293474-.7179549-1.777885-1.7958496l-9.136441-22.3663158zm70.877353-22.3663158c0-4.8505263-3.412691-7.8147368-11.092691-7.8147368-7.594667 0-11.007359 2.9642105-11.007359 7.8147368v31.9769023c0 4.8511679 3.412692 7.8147368 11.007359 7.8147368 7.68 0 11.092691-2.9635689 11.092691-7.8147368zm-30.462717-1.437193c0-7.365614 4.778667-13.8323408 19.370026-13.8323408 14.676691 0 19.456 6.4667268 19.456 13.8323408v34.8519298c0 7.3656141-4.779309 13.8329825-19.456 13.8329825-14.591359 0-19.370026-6.4673684-19.370026-13.8329825zm83.880742-13.1143859c1.109334 0 1.621334.4497644 1.621334 1.7066666v4.0421053c0 1.2575438-.512 1.7066667-1.621334 1.7066667h-13.652691v51.8287719c0 1.2569022-.426667 1.7958496-1.536642 1.7958496h-5.290025c-1.109333 0-1.536-.5389474-1.536-1.7958496v-51.8287719h-13.653333c-1.194025 0-1.620692-.4491229-1.620692-1.7066667v-4.0421053c0-1.2569022.426667-1.7066666 1.620692-1.7066666zm39.766617 14.5515789c0-4.8505263-3.413333-7.8147368-11.092692-7.8147368-7.594667 0-11.008 2.9642105-11.008 7.8147368v31.9769023c0 4.8511679 3.413333 7.8147368 11.008 7.8147368 7.679359 0 11.092692-2.9635689 11.092692-7.8147368zm-30.463359-1.437193c0-7.365614 4.778667-13.8323408 19.370667-13.8323408 14.676692 0 19.455359 6.4667268 19.455359 13.8323408v34.8519298c0 7.3656141-4.778667 13.8329825-19.455359 13.8329825-14.592 0-19.370667-6.4673684-19.370667-13.8329825zm88.218627 46.2590075c0 1.1677193-.323368 1.7066667-1.455158 1.7066667h-4.446957c-.808421 0-1.13179-.2694737-1.454517-.808421l-18.999177-37.0064361c-1.778527-3.3241504-2.748632-6.1087118-2.910958-6.4680101v42.5762005c0 1.1677193-.40421 1.7066667-1.455158 1.7066667h-4.527158c-1.050947 0-1.455158-.5389474-1.455158-1.7066667v-57.6667268c0-1.1670777.404211-1.7066666 1.455158-1.7066666h4.527158c.646737 0 1.050948.2694736 1.293474.7185964l19.48423 37.8161404c1.13179 2.1557895 2.506747 5.7481303 2.506747 5.7481303v-42.5762005c0-1.1670777.484411-1.7066666 1.535359-1.7066666h4.446957c1.13179 0 1.455158.5395889 1.455158 1.7066666zm13.902276 1.7066667c-1.050306 0-1.454517-.5389474-1.454517-1.7958496v-57.4870777c0-1.2575439.404211-1.7971328 1.454517-1.7971328h27.649925c1.050947 0 1.536.4497644 1.536 1.7066666v4.0421053c0 1.2575438-.485053 1.7066667-1.536 1.7066667h-21.262757v18.1445614h19.806957c1.132431 0 1.617484.4491228 1.617484 1.7066666v3.8624562c0 1.1677193-.485053 1.7066666-1.617484 1.7066666h-19.806957v20.7494737h22.15202c1.050947 0 1.536.3592983 1.536 1.6162005v4.1319298c0 1.2581855-.485053 1.7066667-1.536 1.7066667zm74.635869-61.0800601c1.051589 0 1.536642.4497644 1.536642 1.7066666v4.0421053c0 1.2575438-.485053 1.7066667-1.536642 1.7066667h-12.935378v51.8287719c0 1.2569022-.404211 1.7958496-1.454516 1.7958496h-5.012852c-1.050948 0-1.455158-.5389474-1.455158-1.7958496v-51.8287719h-12.935379c-1.131789 0-1.536641-.4491229-1.536641-1.7066667v-4.0421053c0-1.2569022.404852-1.7066666 1.536641-1.7066666z" fill="#e15b29"/></svg>

<?xml version="1.0" encoding="UTF-8" standalone="no"?>
<svg width="512px" height="120px" viewBox="0 0 512 120" version="1.1" xmlns="http://www.w3.org/2000/svg" xmlns:xlink="http://www.w3.org/1999/xlink" preserveAspectRatio="xMidYMid">
    <g>
        <path d="M1.11703258,90.8191372 C0.503017544,90.4643302 0,89.5949568 0,88.8891924 L0,31.0883703 C0,30.3813227 0.503017544,29.5132325 1.11703258,29.1577838 L51.8165815,0.266355263 C52.4312381,-0.0884517544 53.4366316,-0.0884517544 54.0512882,0.266355263 L104.747629,29.1609919 C105.362286,29.5157989 105.864662,30.3838891 105.864662,31.0909367 L105.864662,88.8917588 C105.864662,89.5968816 105.362286,90.4656134 104.747629,90.8217036 L54.0512882,119.713774 C53.4366316,120.068581 52.4312381,120.068581 51.8165815,119.713774 L1.11703258,90.8191372 Z M153.486436,36.8409919 L153.486436,60.2852024 L163.511499,60.2852024 C170.787288,60.2852024 174.020972,57.3209919 174.020972,52.4704655 L174.020972,44.6557287 C174.020972,39.805844 170.787288,36.8409919 163.511499,36.8409919 L153.486436,36.8409919 Z M153.486436,67.740641 L153.486436,88.6697638 C153.486436,89.926666 153.163068,90.4656134 152.031278,90.4656134 L147.099268,90.4656134 C146.048321,90.4656134 145.64411,89.926666 145.64411,88.6697638 L145.64411,31.1826861 C145.64411,29.9251422 146.048321,29.3855533 147.099268,29.3855533 L163.511499,29.3855533 C177.416982,29.3855533 181.863298,35.8529217 181.863298,43.2185357 L181.863298,53.9083001 C181.863298,61.2732726 177.416982,67.740641 163.511499,67.740641 L153.486436,67.740641 Z M200.10795,36.8409919 L200.10795,58.8480094 L210.132371,58.8480094 C217.408802,58.8480094 220.643128,55.9736234 220.643128,51.0332726 L220.643128,44.6557287 C220.643128,39.805844 217.408802,36.8409919 210.132371,36.8409919 L200.10795,36.8409919 Z M200.10795,66.303448 L200.10795,88.6697638 C200.10795,89.926666 199.78394,90.4656134 198.65215,90.4656134 L193.720782,90.4656134 C192.669835,90.4656134 192.265624,89.926666 192.265624,88.6697638 L192.265624,31.1826861 C192.265624,29.9251422 192.669835,29.3855533 193.720782,29.3855533 L210.132371,29.3855533 C224.038496,29.3855533 228.484812,35.8529217 228.484812,43.2185357 L228.484812,52.5602901 C228.484812,58.0395883 225.978707,62.9799392 219.025644,65.1363703 L228.727338,88.6697638 C229.131549,89.7476585 228.40397,90.4656134 227.27218,90.4656134 L222.421013,90.4656134 C221.289223,90.4656134 221.127539,89.7476585 220.643128,88.6697638 L211.506687,66.303448 L200.10795,66.303448 Z M270.985303,43.9371322 C270.985303,39.0866059 267.572612,36.1223954 259.892612,36.1223954 C252.297945,36.1223954 248.885253,39.0866059 248.885253,43.9371322 L248.885253,75.9140345 C248.885253,80.7652024 252.297945,83.7287713 259.892612,83.7287713 C267.572612,83.7287713 270.985303,80.7652024 270.985303,75.9140345 L270.985303,43.9371322 Z M240.522586,42.4999392 C240.522586,35.1343252 245.301253,28.6675984 259.892612,28.6675984 C274.569303,28.6675984 279.348612,35.1343252 279.348612,42.4999392 L279.348612,77.351869 C279.348612,84.7174831 274.569303,91.1848515 259.892612,91.1848515 C245.301253,91.1848515 240.522586,84.7174831 240.522586,77.351869 L240.522586,42.4999392 Z M324.403328,29.3855533 C325.512662,29.3855533 326.024662,29.8353177 326.024662,31.0922199 L326.024662,35.1343252 C326.024662,36.391869 325.512662,36.8409919 324.403328,36.8409919 L310.750637,36.8409919 L310.750637,88.6697638 C310.750637,89.926666 310.32397,90.4656134 309.213995,90.4656134 L303.92397,90.4656134 C302.814637,90.4656134 302.38797,89.926666 302.38797,88.6697638 L302.38797,36.8409919 L288.734637,36.8409919 C287.540612,36.8409919 287.113945,36.391869 287.113945,35.1343252 L287.113945,31.0922199 C287.113945,29.8353177 287.540612,29.3855533 288.734637,29.3855533 L324.403328,29.3855533 Z M364.169945,43.9371322 C364.169945,39.0866059 360.756612,36.1223954 353.077253,36.1223954 C345.482586,36.1223954 342.069253,39.0866059 342.069253,43.9371322 L342.069253,75.9140345 C342.069253,80.7652024 345.482586,83.7287713 353.077253,83.7287713 C360.756612,83.7287713 364.169945,80.7652024 364.169945,75.9140345 L364.169945,43.9371322 Z M333.706586,42.4999392 C333.706586,35.1343252 338.485253,28.6675984 353.077253,28.6675984 C367.753945,28.6675984 372.532612,35.1343252 372.532612,42.4999392 L372.532612,77.351869 C372.532612,84.7174831 367.753945,91.1848515 353.077253,91.1848515 C338.485253,91.1848515 333.706586,84.7174831 333.706586,77.351869 L333.706586,42.4999392 Z M421.925213,88.7589467 C421.925213,89.926666 421.601845,90.4656134 420.470055,90.4656134 L416.023098,90.4656134 C415.214677,90.4656134 414.891308,90.1961397 414.568581,89.6571924 L395.569404,52.6507563 C393.790877,49.3266059 392.820772,46.5420445 392.658446,46.1827462 L392.658446,88.7589467 C392.658446,89.926666 392.254236,90.4656134 391.203288,90.4656134 L386.67613,90.4656134 C385.625183,90.4656134 385.220972,89.926666 385.220972,88.7589467 L385.220972,31.0922199 C385.220972,29.9251422 385.625183,29.3855533 386.67613,29.3855533 L391.203288,29.3855533 C391.850025,29.3855533 392.254236,29.6550269 392.496762,30.1041497 L411.980992,67.9202901 C413.112782,70.0760796 414.487739,73.6684204 414.487739,73.6684204 L414.487739,31.0922199 C414.487739,29.9251422 414.97215,29.3855533 416.023098,29.3855533 L420.470055,29.3855533 C421.601845,29.3855533 421.925213,29.9251422 421.925213,31.0922199 L421.925213,88.7589467 Z M435.827489,90.4656134 C434.777183,90.4656134 434.372972,89.926666 434.372972,88.6697638 L434.372972,31.1826861 C434.372972,29.9251422 434.777183,29.3855533 435.827489,29.3855533 L463.477414,29.3855533 C464.528361,29.3855533 465.013414,29.8353177 465.013414,31.0922199 L465.013414,35.1343252 C465.013414,36.391869 464.528361,36.8409919 463.477414,36.8409919 L442.214657,36.8409919 L442.214657,54.9855533 L462.021614,54.9855533 C463.154045,54.9855533 463.639098,55.4346761 463.639098,56.6922199 L463.639098,60.5546761 C463.639098,61.7223954 463.154045,62.2613427 462.021614,62.2613427 L442.214657,62.2613427 L442.214657,83.0108164 L464.366677,83.0108164 C465.417624,83.0108164 465.902677,83.3701147 465.902677,84.6270169 L465.902677,88.7589467 C465.902677,90.0171322 465.417624,90.4656134 464.366677,90.4656134 L435.827489,90.4656134 Z M510.463358,29.3855533 C511.514947,29.3855533 512,29.8353177 512,31.0922199 L512,35.1343252 C512,36.391869 511.514947,36.8409919 510.463358,36.8409919 L497.52798,36.8409919 L497.52798,88.6697638 C497.52798,89.926666 497.123769,90.4656134 496.073464,90.4656134 L491.060612,90.4656134 C490.009664,90.4656134 489.605454,89.926666 489.605454,88.6697638 L489.605454,36.8409919 L476.670075,36.8409919 C475.538286,36.8409919 475.133434,36.391869 475.133434,35.1343252 L475.133434,31.0922199 C475.133434,29.8353177 475.538286,29.3855533 476.670075,29.3855533 L510.463358,29.3855533 Z" fill="#E15B29"></path>
    </g>
</svg>
